dist/img/icons/main/user.svg

<svg width="20" height="19" viewBox="0 0 20 19" fill="none" xmlns="http://www.w3.org/2000/svg">
<path d="M15.4176 8.9729L14.2876 8.65717C15.0502 7.71723 15.4643 6.56168 15.4643 5.34375C15.4643 2.39263 13.0229 0 10 0C6.98231 0 4.53571 2.38754 4.53571 5.34375C4.53571 6.56168 4.94982 7.71723 5.71243 8.65717L4.58243 8.9729C2.23958 9.62755 1.5 11.7112 1.5 12.9692V16.7946C1.5 18.0107 2.51161 19 3.75508 19H16.2449C17.4884 19 18.5 18.0107 18.5 16.7946V12.9692C18.5 11.7373 17.7797 9.63293 15.4176 8.9729ZM10 1.1875C12.3472 1.1875 14.25 3.04831 14.25 5.34375C14.25 7.63919 12.3472 9.5 10 9.5C7.65279 9.5 5.75 7.63919 5.75 5.34375C5.75 3.04831 7.65279 1.1875 10 1.1875ZM17.2857 16.7946C17.2857 17.3568 16.8197 17.8125 16.2449 17.8125H3.75508C3.18027 17.8125 2.71429 17.3568 2.71429 16.7946V12.9692C2.71429 11.6438 3.61278 10.4789 4.91601 10.1147L6.71228 9.61281C7.65476 10.31 8.79763 10.6875 10 10.6875C11.2024 10.6875 12.3452 10.31 13.2877 9.61281L15.084 10.1147C16.3872 10.4789 17.2857 11.6438 17.2857 12.9692V16.7946Z" fill="#161C25"/>
</svg>

<svg width="20" height="19" fill="none" xmlns="http://www.w3.org/2000/svg"><path d="M15.418 8.973l-1.13-.316a5.23 5.23 0 001.176-3.313C15.464 2.393 13.023 0 10 0 6.982 0 4.536 2.388 4.536 5.344a5.23 5.23 0 001.176 3.313l-1.13.316C2.24 9.628 1.5 11.71 1.5 12.969v3.826C1.5 18.01 2.512 19 3.755 19h12.49c1.243 0 2.255-.99 2.255-2.205v-3.826c0-1.232-.72-3.336-3.082-3.996zM10 1.187c2.347 0 4.25 1.861 4.25 4.157C14.25 7.639 12.347 9.5 10 9.5S5.75 7.64 5.75 5.344c0-2.296 1.903-4.157 4.25-4.157zm7.286 15.608a1.03 1.03 0 01-1.041 1.017H3.755a1.03 1.03 0 01-1.04-1.017v-3.826c0-1.325.898-2.49 2.201-2.854l1.796-.502A5.504 5.504 0 0010 10.688a5.503 5.503 0 003.288-1.075l1.796.502c1.303.364 2.202 1.529 2.202 2.854v3.826z" fill="#161C25"/></svg>
